Sources/FrostedUI/Resources/Icons.xcassets/facebookFilled32.imageset/facebook-filled-32.svg

<svg width="32" height="32" viewBox="0 0 32 32" fill="none" xmlns="http://www.w3.org/2000/svg" data-fui-icon="true">
  <path
    d="M12.7787 28.9414V20.0748H10.0268V16H12.7787V14.2444C12.7787 9.70594 14.832 7.60446 19.2853 7.60446C20.1284 7.60446 21.5838 7.76965 22.1817 7.93483V11.6259C21.8668 11.5941 21.3172 11.5778 20.6401 11.5778C18.4534 11.5778 17.6105 12.4045 17.6105 14.5592V16H21.9684L21.2217 20.0742H17.6165V29.237C24.2182 28.4372 29.3333 22.816 29.3333 16C29.3333 8.63631 23.3637 2.66669 16 2.66669C8.63625 2.66669 2.66663 8.63631 2.66663 16C2.66663 22.2532 6.9708 27.5004 12.7787 28.9414Z"
    fill="currentColor"
  />
</svg>

<svg xmlns="http://www.w3.org/2000/svg" width="32" height="32" fill="none" data-fui-icon="true" viewBox="0 0 32 32"><path fill="currentColor" d="M12.779 28.941v-8.866h-2.752V16h2.752v-1.756c0-4.538 2.053-6.64 6.506-6.64.843 0 2.299.166 2.897.33v3.692a18 18 0 0 0-1.542-.048c-2.187 0-3.03.827-3.03 2.981V16h4.358l-.746 4.074h-3.606v9.163c6.602-.8 11.717-6.421 11.717-13.237 0-7.364-5.97-13.333-13.333-13.333S2.667 8.637 2.667 16c0 6.253 4.304 11.5 10.112 12.941"/></svg>
